icons/1_Primary/Philips.svg

<svg xmlns="http://www.w3.org/2000/svg" width="1024" height="1024" fill="none">
   <g clip-path="url(#a)">
      <path fill="#728DBE" d="M512 1024c282.77 0 512-229.23 512-512S794.77 0 512 0 0 229.23 0 512s229.23 512 512 512Z"/>
      <path fill="#fff" d="M233.17 546.38h-15.28v22.92h-30.56V454.7c7.4.18 33.66 0 45.83 0 35.84 0 53.48 15 53.48 45.84.01 28.07-20.98 45.84-53.47 45.84Zm-7.63-68.75c-1.8 0-5.61-.12-7.65 0v45.83h7.65c18.15 0 30.56-8.66 30.56-22.92-.01-13.81-13.37-22.92-30.56-22.92v.01Zm145.13 91.67v-45.84h-38.2v45.84h-30.56V454.7h30.56v45.84h38.2V454.7h30.56v114.6h-30.56Zm61.11 0V454.7h30.56v114.6h-30.56Zm122.23 0h-61.1V454.7h30.56v91.68h38.19l-7.65 22.92Zm22.91 0V454.7h30.56v114.6h-30.56Zm106.95-22.93H668.6v22.93H638V454.7c7.4.18 33.67 0 45.83 0 35.84 0 53.47 15 53.47 45.84.05 28.07-20.93 45.84-53.42 45.84l-.01-.01Zm-7.64-68.75c-1.79 0-5.61-.12-7.64 0v45.83h7.64c18.15 0 30.56-8.66 30.56-22.92 0-13.8-13.34-22.91-30.55-22.91h-.01Zm105.47 7.46c0 17.48 55 10.59 55 47.39 0 27.61-23.9 36.81-53 36.81-11.46 0-25.8-1.83-36.32-5.52l-3.83-25.31c10.52 5.06 28.2 8.75 39.66 8.75 12.91 0 18.17-3.7 18.17-10.6 0-17.94-54.48-10.13-54.48-48.77 0-22.43 19.13-33.13 47.31-33.13a141.58 141.58 0 0 1 32 3.22l2.79 23.94c-8.14-3.22-20.08-5.51-31.07-5.51-9.99 0-16.22 2.75-16.22 8.73h-.01Z"/>
   </g>
   <defs>
      <clipPath id="a">
         <path fill="#fff" d="M0 0h1024v1024H0z"/>
      </clipPath>
   </defs>
</svg>

<svg width="1024" height="1024" viewBox="0 0 1024 1024" fill="none" xmlns="http://www.w3.org/2000/svg">
<g clip-path="url(#clip0_2_3126)">
<path d="M512 1024C794.77 1024 1024 794.77 1024 512C1024 229.23 794.77 0 512 0C229.23 0 0 229.23 0 512C0 794.77 229.23 1024 512 1024Z" fill="#728DBE"/>
<path d="M233.17 546.38H217.89V569.3H187.33V454.7C194.73 454.88 220.99 454.7 233.16 454.7C269 454.7 286.64 469.7 286.64 500.54C286.65 528.61 265.66 546.38 233.17 546.38ZM225.54 477.63C223.74 477.63 219.93 477.51 217.89 477.63V523.46H225.54C243.69 523.46 256.1 514.8 256.1 500.54C256.09 486.73 242.73 477.62 225.54 477.62V477.63ZM370.67 569.3V523.46H332.47V569.3H301.91V454.7H332.47V500.54H370.67V454.7H401.23V569.3H370.67ZM431.78 569.3V454.7H462.34V569.3H431.78ZM554.01 569.3H492.91V454.7H523.47V546.38H561.66L554.01 569.3ZM576.92 569.3V454.7H607.48V569.3H576.92ZM683.87 546.37H668.6V569.3H638V454.7C645.4 454.88 671.67 454.7 683.83 454.7C719.67 454.7 737.3 469.7 737.3 500.54C737.35 528.61 716.37 546.38 683.88 546.38L683.87 546.37ZM676.23 477.62C674.44 477.62 670.62 477.5 668.59 477.62V523.45H676.23C694.38 523.45 706.79 514.79 706.79 500.53C706.79 486.73 693.45 477.62 676.24 477.62H676.23ZM781.7 485.08C781.7 502.56 836.7 495.67 836.7 532.47C836.7 560.08 812.8 569.28 783.7 569.28C772.24 569.28 757.9 567.45 747.38 563.76L743.55 538.45C754.07 543.51 771.75 547.2 783.21 547.2C796.12 547.2 801.38 543.5 801.38 536.6C801.38 518.66 746.9 526.47 746.9 487.83C746.9 465.4 766.03 454.7 794.21 454.7C804.964 454.554 815.7 455.635 826.21 457.92L829 481.86C820.86 478.64 808.92 476.35 797.93 476.35C787.94 476.35 781.71 479.1 781.71 485.08H781.7Z" fill="white"/>
</g>
<defs>
<clipPath id="clip0_2_3126">
<rect width="1024" height="1024" fill="white"/>
</clipPath>
</defs>
</svg>
